themes/ColwichTheme/static/images/icons/confetti.svg

<svg viewBox="0 0 512 512" xmlns="http://www.w3.org/2000/svg"><path d="m2.035 468.7c-4.406 11.75-1.531 24.1 7.344 33.88 6.091 6.22 14.281 9.42 22.621 9.42 3.781 0 7.594-.6562 11.25-2.031l90.25-33.84-97.63-97.63zm46.185-123.1 118.2 118.2 60.18-22.57-155.81-155.83zm262.38 15.8-160-160c-7.7-7.7-18.8-10.9-29.4-8.7-10.6 2.3-19.4 9.9-23.17 20l-14.9 39.8 176.4 176.4 39.75-14.9c10.19-3.813 17.72-12.56 20.03-23.19 2.29-10.61-1.01-21.71-8.71-29.41z"/><path d="m389.7 176c20.87-24.47 19.37-48.19 18.25-65.5-.9687-14.97-1.062-21.97 6.844-31.22 7.875-9.219 14.78-10.19 29.66-11.53 17.25-1.562 40.91-3.688 61.84-28.16 8.594-10.06 7.437-25.22-2.656-33.84-10.03-8.5-25.16-7.438-33.84 2.656-7.875 9.219-14.78 10.19-29.66 11.53-17.25 1.562-40.91 3.688-61.84 28.16-20.87 24.47-19.37 48.19-18.25 65.5.9687 14.97 1.062 21.97-6.844 31.22-7.844 9.188-14.75 10.16-29.59 11.5-17.25 1.531-40.91 3.625-61.81 28.09-8.604 10.094-7.504 25.294 2.596 33.894 4.5 3.8 10.1 5.7 14.7 5.7 6.781 0 13.5-2.844 18.25-8.406 7.844-9.188 14.75-10.16 29.56-11.5 18.19-1.494 41.79-3.594 62.79-28.094zm-158.6-176c-13.25 0-23.1 10.75-23.1 24v9.531c0 32.56-14.34 63.19-39.37 84.03-10.23 8.539-11.53 23.639-3.03 33.839 4.7 5.7 11.5 8.6 18.4 8.6 5.437 0 10.87-1.812 15.37-5.562 35.97-30 56.62-74.06 56.62-120.9v-9.538c-.89-13.25-10.79-24-24.89-24zm-167.1.0013c-17.67 0-31.1 14.33-31.1 31.1 0 17.67 14.33 31.1 31.1 31.1s31.1-14.33 31.1-31.1c.9-16.7713-13.42-31.1-31.1-31.1zm423.1 255.9987h-9.531c-45.969 0-89.969 20.7-119.969 56.6-8.5 10.19-7.125 25.31 3.062 33.81 4.438 3.79 9.938 5.59 14.438 5.59 6.875 0 13.69-2.938 18.44-8.625 21.76-25.075 52.36-39.375 84.96-39.375h9.531c13.25 0 23.1-10.75 23.1-24s-9.931-24-24.031-24zm-8-128c-17.67 0-31.1 14.33-31.1 31.1 0 17.67 14.33 31.1 31.1 31.1 17.67 0 31.1-14.33 31.1-31.1.9-16.8-12.5-31.1-31.1-31.1zm0 288c-17.67 0-31.1 14.33-31.1 31.1 0 17.67 14.33 31.1 31.1 31.1 17.67 0 31.1-14.33 31.1-31.1.9-16.8-12.5-31.1-31.1-31.1z" opacity=".4"/></svg>

<svg xmlns="http://www.w3.org/2000/svg" viewBox="0 0 512 512"><!--! Font Awesome Pro 6.1.1 by @fontawesome - https://fontawesome.com License - https://fontawesome.com/license (Commercial License) Copyright 2022 Fonticons, Inc. --><defs><style>.fa-secondary{opacity:.4}</style></defs><path class="fa-primary" d="M2.035 468.7c-4.406 11.75-1.531 24.1 7.344 33.88C15.47 508.8 23.66 512 32 512c3.781 0 7.594-.6562 11.25-2.031l90.25-33.84l-97.63-97.63L2.035 468.7zM48.22 345.6l118.2 118.2l60.18-22.57L70.79 285.4L48.22 345.6zM310.6 361.4L150.6 201.4C142.9 193.7 131.8 190.5 121.2 192.7C110.6 195 101.8 202.6 98.03 212.7L83.13 252.5l176.4 176.4l39.75-14.9c10.19-3.813 17.72-12.56 20.03-23.19C321.6 380.2 318.3 369.1 310.6 361.4z"/><path class="fa-secondary" d="M389.7 176c20.87-24.47 19.37-48.19 18.25-65.5c-.9687-14.97-1.062-21.97 6.844-31.22c7.875-9.219 14.78-10.19 29.66-11.53c17.25-1.562 40.91-3.688 61.84-28.16c8.594-10.06 7.437-25.22-2.656-33.84c-10.03-8.5-25.16-7.438-33.84 2.656c-7.875 9.219-14.78 10.19-29.66 11.53c-17.25 1.562-40.91 3.688-61.84 28.16c-20.87 24.47-19.37 48.19-18.25 65.5c.9687 14.97 1.062 21.97-6.844 31.22c-7.844 9.188-14.75 10.16-29.59 11.5c-17.25 1.531-40.91 3.625-61.81 28.09C253.2 194.5 254.3 209.7 264.4 218.3C268.9 222.1 274.5 224 279.1 224c6.781 0 13.5-2.844 18.25-8.406c7.844-9.188 14.75-10.16 29.56-11.5C345.1 202.6 368.7 200.5 389.7 176zM231.1 0c-13.25 0-23.1 10.75-23.1 24v9.531c0 32.56-14.34 63.19-39.37 84.03C158.4 126.1 157.1 141.2 165.6 151.4C170.3 157.1 177.1 160 184 160c5.437 0 10.87-1.812 15.37-5.562c35.97-30 56.62-74.06 56.62-120.9V24C255.1 10.75 245.2 0 231.1 0zM64 .0013c-17.67 0-31.1 14.33-31.1 31.1c0 17.67 14.33 31.1 31.1 31.1s31.1-14.33 31.1-31.1C96 14.33 81.68 .0013 64 .0013zM487.1 256h-9.531C431.6 256 387.6 276.7 357.6 312.6c-8.5 10.19-7.125 25.31 3.062 33.81C365.1 350.2 370.6 352 375.1 352c6.875 0 13.69-2.938 18.44-8.625C415.3 318.3 445.9 304 478.5 304h9.531c13.25 0 23.1-10.75 23.1-24S501.2 256 487.1 256zM479.1 128c-17.67 0-31.1 14.33-31.1 31.1c0 17.67 14.33 31.1 31.1 31.1c17.67 0 31.1-14.33 31.1-31.1C511.1 142.3 497.7 128 479.1 128zM479.1 416c-17.67 0-31.1 14.33-31.1 31.1c0 17.67 14.33 31.1 31.1 31.1c17.67 0 31.1-14.33 31.1-31.1C511.1 430.3 497.7 416 479.1 416z"/></svg>
